X:1
T:The Duchess of Hamilton
T:The Duchess of Hamilton
T:John Bowie
C:John Bowie
L:1/8
Q:1/8=128
M:4/4
K:G
V:1 treble 
V:1
|: c | B<G G>A F>G A<c | B<G G>D B,>D G,>c | B<G G>A F>G A>c | B>d A/B/c/A/ B<G Gc | %5
 B<G G>A F>G A<c | B<G G>D B,>D G,>c | B<G G>A F>G A>c | B>d A/B/c/A/ B<G Gd | %9
 g>d B/c/d/B/ g<d d>e | g>d g/a/b a<e e>f | g>d B/c/d/B/ g>d e>B | c<a A>c B<G Gd | %13
 g>d B/c/d/B/ g<d d>e | g>d g/a/b a<e e>f | g<b d<B c<a c<A | B>d A/B/c/A/ B<G G :| %17

